img/sponsors/scotiabank.svg

<?xml version="1.0" encoding="UTF-8"?>
<svg width="361px" height="62px" viewBox="0 0 361 62" version="1.1" xmlns="http://www.w3.org/2000/svg" xmlns:xlink="http://www.w3.org/1999/xlink">
    <!-- Generator: Sketch 44.1 (41455) - http://www.bohemiancoding.com/sketch -->
    <title>scotiabank</title>
    <desc>Created with Sketch.</desc>
    <defs></defs>
    <g id="Page-1" stroke="none" stroke-width="1" fill="none" fill-rule="evenodd">
        <g id="scotiabank" fill-rule="nonzero" fill="#EE2A24">
            <path d="M12.32,30.69 C10.32,27.56 9.92,23.38 9.92,20.15 C9.92,9.29 19.62,0 29.85,0 L61.68,0 L49.26,12.52 L29.64,12.52 C21.71,12.52 12.11,20.52 12.31,30.68 L12.32,30.69 Z M24.53,21.82 C25.7034822,18.7713473 27.6884251,16.1017029 30.27,14.1 C25.68,14.1 20.46,16.29 16.49,21.82 L24.53,21.82 Z M30.9,15.56 C28.9343803,17.3002877 27.3070868,19.3886477 26.1,21.72 L35.7,21.72 C34.4389222,19.42371 32.8184247,17.3440716 30.9,15.56 L30.9,15.56 Z M15.76,23.38 C14.6235078,25.5527531 13.9429234,27.9347986 13.76,30.38 L22.63,30.38 C22.6197326,27.9902578 23.0432623,25.6184913 23.88,23.38 L15.76,23.38 Z M25.47,23.38 C24.6871557,25.6370731 24.2292389,27.9939978 24.11,30.38 L37.57,30.38 C37.3897548,28.0018086 36.9333514,25.6526736 36.21,23.38 L25.47,23.38 Z M45,21.81 C41.24,16.28 36,14.09 31.54,14.09 C34.060393,16.1508903 36.0322189,18.8028931 37.28,21.81 L45,21.81 Z M37.8,23.38 C38.6125396,25.6222383 39.002458,27.9956549 38.95,30.38 L47.95,30.38 C47.8531387,27.9202338 47.1672584,25.5196528 45.95,23.38 L37.8,23.38 Z M16.49,40.08 C20.49,45.82 25.67,47.8 30.27,47.8 C27.87,45.92 25.27,42.58 24.53,40.08 L16.49,40.08 Z M30.89,46.45 C32.8606244,44.6331189 34.4867463,42.4751196 35.69,40.08 L26.09,40.08 C27.2212809,42.5190322 28.8573241,44.690198 30.89,46.45 L30.89,46.45 Z M23.89,38.73 C23.0885937,36.4819811 22.6661779,34.1164525 22.64,31.73 L13.64,31.73 C13.8507183,34.1701622 14.5297694,36.5468413 15.64,38.73 L23.89,38.73 Z M36.21,38.73 C36.9826763,36.4702026 37.4403127,34.114721 37.57,31.73 L24.11,31.73 C24.3001267,34.1068511 24.756313,36.4548692 25.47,38.73 L36.21,38.73 Z M37.21,40.09 C35.9258951,43.0763323 33.9600381,45.7203072 31.47,47.81 C35.96,47.81 41.18,45.81 44.93,40.09 L37.21,40.09 Z M45.87,38.73 C47.0872584,36.5903472 47.7731387,34.1897662 47.87,31.73 L38.87,31.73 C38.8206651,34.1060718 38.4334501,36.4630328 37.72,38.73 L45.87,38.73 Z M49.21,30.9 C49.47,41.44 40,49.37 32,49.37 L12.32,49.37 L0,61.68 L31.83,61.68 C41.95,61.68 51.77,52.5 51.77,41.68 C51.77,38.44 51.35,34.27 49.37,31.14 L49.37,30.93 L49.21,30.9 Z M142.36,47.8 C134.11,47.8 128.17,42.8 128.17,35.07 C128.17,27.34 134.33,22.34 142.36,22.34 C150.39,22.34 156.55,27.45 156.55,35.07 C156.55,42.69 150.5,47.8 142.36,47.8 Z M283.68,22.86 L283.68,47.28 L275.43,47.28 L275.33,44.78 L275.12,44.78 C274.18,45.61 272.3,47.78 266.98,47.78 C261.03,47.78 255.92,42.67 255.92,35.05 C255.92,27.95 260.51,22.32 267.51,22.32 C272.31,22.32 274.19,24.41 274.92,25.14 L275.13,25.14 L275.23,22.95 L283.68,22.95 L283.68,22.86 Z M220.01,22.86 L220.01,47.28 L211.76,47.28 L211.66,44.78 L211.45,44.78 C210.51,45.61 208.63,47.78 203.31,47.78 C197.36,47.78 192.25,42.67 192.25,35.05 C192.25,27.95 196.84,22.32 203.84,22.32 C208.64,22.32 210.52,24.41 211.25,25.14 L211.46,25.14 L211.56,22.95 L220,22.95 L220.01,22.86 Z M179.93,22.86 L188.49,22.86 L188.49,47.28 L179.93,47.28 L179.93,22.86 Z M225.44,47.28 L225.44,12.84 L233.89,12.84 L233.89,24.63 L233.99,24.63 C236.172189,23.1349594 238.754799,22.3333396 241.4,22.33 C247.98,22.33 252.88,27.65 252.88,34.65 C252.88,43.42 247.45,47.8 241.4,47.8 C236.81,47.8 234.4,45.61 233.89,44.98 L233.79,44.98 L233.69,47.17 L225.44,47.17 L225.44,47.28 Z M142.36,41.64 C145.8,41.64 147.79,38.64 147.79,35.06 C147.79,31.48 145.79,28.38 142.36,28.38 C138.71,28.38 136.93,31.38 136.93,35.06 C136.93,38.74 138.93,41.64 142.36,41.64 Z M175.86,40.64 C175.109803,40.858663 174.339062,40.9994069 173.56,41.06 C172.549682,41.140568 171.556095,40.7662018 170.850141,40.0389723 C170.144187,39.3117428 169.799478,38.3074815 169.91,37.3 L169.91,29 L175.23,29 L175.23,22.86 L169.91,22.86 L169.91,15 L161.46,15 L161.46,22.83 L157.7,22.83 L157.7,29 L161.46,29 L161.46,38.6 C161.46,43.92 163.96,47.68 170.23,47.68 C171.805709,47.6728305 173.377986,47.5323292 174.93,47.26 L175.87,40.58 L175.86,40.64 Z M79.32,46.34 C82.5095657,47.2533881 85.8122477,47.7112522 89.13,47.7 C96.33,47.7 103.64,45.09 103.64,37.16 C103.64,26.16 88.64,27.77 88.64,23.38 C88.64,21.19 90.94,20.67 93.23,20.67 C95.9837778,20.8398627 98.6888018,21.4755433 101.23,22.55 L102,15 C99.1849091,14.1961689 96.2673158,13.8087287 93.34,13.85 C86.14,13.85 79.15,16.67 79.15,23.77 C79.15,34.52 94.15,32.22 94.15,37.86 C94.15,40.05 91.96,40.86 89.24,40.86 C85.48,40.86 81.93,38.98 80.37,38.25 L79.37,46.25 L79.32,46.34 Z M264.9,34.86 C264.9,38.93 267.2,41.44 270.12,41.44 C272.73,41.44 275.34,38.94 275.34,35.18 C275.34,31.42 273.04,28.81 270.12,28.81 C266.99,28.81 264.9,31.52 264.9,34.86 Z M201.23,34.86 C201.23,38.93 203.53,41.44 206.45,41.44 C209.06,41.44 211.67,38.94 211.67,35.18 C211.67,31.42 209.37,28.81 206.45,28.81 C203.53,28.81 201.23,31.52 201.23,34.86 Z M126,23.27 C124.045684,22.638903 122.003671,22.3216316 119.95,22.33 C112.33,22.33 106.59,27.13 106.59,35.06 C106.59,42.26 111.7,47.79 119.59,47.79 C121.750461,47.7657597 123.896038,47.4289344 125.96,46.79 L125.54,39.69 C124.233309,40.4417343 122.765885,40.8703044 121.26,40.94 C119.678335,41.0189765 118.135717,40.4328845 117.005519,39.323581 C115.875321,38.2142775 115.260548,36.6828633 115.31,35.1 C115.285841,33.5069129 115.922631,31.9749787 117.068962,30.8684371 C118.215294,29.7618955 119.76876,29.1796001 121.36,29.26 C122.819332,29.3214527 124.245456,29.7147483 125.53,30.41 L125.95,23.31 L126,23.27 Z M319.82,47.27 L328.27,47.27 L328.27,36 L328.37,36 L335.88,47.27 L345.27,47.27 L336.19,34.33 L345.06,22.85 L335.67,22.85 L328.36,32.85 L328.26,32.85 L328.26,12.85 L319.8,12.85 L319.8,47.28 L319.82,47.27 Z M289.13,47.27 L297.38,47.27 L297.38,34.65 C297.38,31.73 299.38,29.65 301.87,29.65 C304.69,29.65 306.36,31.53 306.36,34.65 L306.36,47.28 L314.61,47.28 L314.61,32.56 C314.61,27.03 311.06,22.33 304.49,22.33 C301.588375,22.2981853 298.812969,23.5147021 296.87,25.67 L296.66,25.67 L296.56,22.96 L289.15,22.96 L289.15,47.28 L289.13,47.27 Z M184.22,10.54 C181.569033,10.54 179.42,12.6890332 179.42,15.34 C179.42,17.9909668 181.569033,20.14 184.22,20.14 C186.870967,20.14 189.02,17.9909668 189.02,15.34 C188.987635,12.7025555 186.857444,10.5723649 184.22,10.54 L184.22,10.54 Z M244.13,35.07 C244.13,31.83 242.25,28.91 239.02,28.91 C236.2,28.91 233.91,31.31 233.91,35.07 C233.91,38.83 235.79,41.23 239.02,41.23 C241.94,41.23 244.13,38.83 244.13,35.07 L244.13,35.07 Z M360.5,16.7 C360.499031,17.3393088 360.394337,17.9742252 360.19,18.58 C359.980951,19.1892523 359.662391,19.7552037 359.25,20.25 C358.801344,20.7704039 358.226199,21.1664622 357.58,21.4 C356.8573,21.7198008 356.069085,21.8637356 355.28,21.82 C354.491651,21.8526196 353.705941,21.7091421 352.98,21.4 C352.38374,21.077604 351.823859,20.6920566 351.31,20.25 C350.897609,19.7552037 350.579049,19.1892523 350.37,18.58 C349.951714,17.3615663 349.951714,16.0384337 350.37,14.82 C350.579049,14.2107477 350.897609,13.6447963 351.31,13.15 C351.764223,12.6267641 352.346572,12.2304907 353,12 C354.479423,11.4436467 356.110577,11.4436467 357.59,12 C358.18626,12.322396 358.746141,12.7079434 359.26,13.15 C359.672391,13.6447963 359.990951,14.2107477 360.2,14.82 C360.40094,15.4263365 360.502254,16.0612388 360.5,16.7 L360.5,16.7 Z M359.56,16.7 C359.558494,16.1616104 359.453242,15.6285563 359.25,15.13 C359.075966,14.6214955 358.792661,14.1572837 358.42,13.77 C358.057468,13.3422446 357.588278,13.0179517 357.06,12.83 C356.466481,12.5694647 355.827966,12.4268178 355.18,12.41 C354.526687,12.375089 353.876343,12.5203786 353.3,12.83 C352.786155,13.0452089 352.322929,13.3653797 351.94,13.77 C351.603315,14.1838621 351.324121,14.6413376 351.11,15.13 C350.692778,16.1316222 350.692778,17.2583778 351.11,18.26 C351.284034,18.7685045 351.567339,19.2327163 351.94,19.62 C352.302532,20.0477554 352.771722,20.3720483 353.3,20.56 C353.893519,20.8205353 354.532034,20.9631822 355.18,20.98 C355.833313,21.014911 356.483657,20.8696214 357.06,20.56 C357.552776,20.3079675 358.010071,19.991896 358.42,19.62 C358.756685,19.2061379 359.035879,18.7486624 359.25,18.26 C359.451985,17.7645616 359.557214,17.235023 359.56,16.7 L359.56,16.7 Z M353.51,14 C353.49511,13.8868947 353.531823,13.773084 353.61,13.69 C353.710645,13.5596071 353.865299,13.4822798 354.03,13.48 L355.39,13.48 C355.712599,13.4989159 356.030022,13.5698296 356.33,13.69 C356.778425,13.8839592 357.136041,14.2415748 357.33,14.69 C357.414336,14.8886668 357.448672,15.1049827 357.43,15.32 C357.403863,15.6725336 357.297854,16.0144987 357.12,16.32 C356.877169,16.6426053 356.552682,16.8946002 356.18,17.05 C356.39,17.36 356.6,17.57 356.81,17.88 C356.99349,18.1450078 357.204681,18.3897211 357.44,18.61 C357.54,18.71 357.65,18.82 357.65,18.92 L357.65,19.13 C357.64772,19.2947011 357.570393,19.4493555 357.44,19.55 C357.356916,19.6281765 357.243105,19.6648897 357.13,19.65 C356.92,19.65 356.82,19.55 356.61,19.34 C356.375481,19.0828308 356.164627,18.8050394 355.98,18.51 C355.67,18.09 355.46,17.78 355.15,17.36 L355.05,17.26 L354.53,17.26 L354.53,19.26 C354.547176,19.4074083 354.511761,19.5561481 354.43,19.68 C354.33,19.78 354.22,19.78 354.01,19.78 C353.862592,19.7971756 353.713852,19.7617614 353.59,19.68 C353.49,19.58 353.49,19.47 353.49,19.26 L353.51,14 Z M354.51,16.3 L355.34,16.3 C355.61566,16.3017015 355.879796,16.1895342 356.07,15.99 C356.246824,15.7909623 356.324032,15.5225719 356.28,15.26 C356.258626,15.0368039 356.186818,14.8213815 356.07,14.63 C355.879796,14.4304658 355.61566,14.3182985 355.34,14.32 L354.51,14.32 L354.51,16.3 Z" id="Shape"></path>
        </g>
    </g>
</svg>

<svg id="Layer_1" data-name="Layer 1" xmlns="http://www.w3.org/2000/svg" viewBox="0 0 360.5 61.68"><defs><style>.cls-1{fill:#ee2a24}</style></defs><title>logo</title><path class="cls-1" d="M12.32 30.69c-2-3.13-2.4-7.31-2.4-10.54C9.92 9.29 19.62 0 29.85 0h31.83L49.26 12.52H29.64c-7.93 0-17.53 8-17.33 18.16zm12.21-8.87a17.91 17.91 0 0 1 5.74-7.72c-4.59 0-9.81 2.19-13.78 7.72zm6.37-6.26a21.32 21.32 0 0 0-4.8 6.16h9.6a24.55 24.55 0 0 0-4.8-6.16zm-15.14 7.82a18 18 0 0 0-2 7h8.87a19.75 19.75 0 0 1 1.25-7zm9.71 0a25.2 25.2 0 0 0-1.36 7h13.46a30.74 30.74 0 0 0-1.36-7zM45 21.81c-3.76-5.53-9-7.72-13.46-7.72a19.75 19.75 0 0 1 5.74 7.72zm-7.2 1.57a19.3 19.3 0 0 1 1.15 7h9a15.38 15.38 0 0 0-2-7zm-21.31 16.7c4 5.74 9.18 7.72 13.78 7.72-2.4-1.88-5-5.22-5.74-7.72zm14.4 6.37a22.25 22.25 0 0 0 4.8-6.37h-9.6a19 19 0 0 0 4.8 6.37zm-7-7.72a21.55 21.55 0 0 1-1.25-7h-9a19.06 19.06 0 0 0 2 7zm12.32 0a26 26 0 0 0 1.36-7H24.11a31.88 31.88 0 0 0 1.36 7zm1 1.36a20.81 20.81 0 0 1-5.74 7.72c4.49 0 9.71-2 13.46-7.72zm8.66-1.36a15.38 15.38 0 0 0 2-7h-9a25.05 25.05 0 0 1-1.15 7zm3.34-7.83C49.47 41.44 40 49.37 32 49.37H12.32L0 61.68h31.83c10.12 0 19.94-9.18 19.94-20 0-3.24-.42-7.41-2.4-10.54v-.21zm93.15 16.9c-8.25 0-14.19-5-14.19-12.73s6.16-12.73 14.19-12.73 14.19 5.11 14.19 12.73-6.05 12.73-14.19 12.73zm141.32-24.94v24.42h-8.25l-.1-2.5h-.21c-.94.83-2.82 3-8.14 3-5.95 0-11.06-5.11-11.06-12.73 0-7.1 4.59-12.73 11.59-12.73 4.8 0 6.68 2.09 7.41 2.82h.21l.1-2.19h8.45zm-63.67 0v24.42h-8.25l-.1-2.5h-.21c-.94.83-2.82 3-8.14 3-5.95 0-11.06-5.11-11.06-12.73 0-7.1 4.59-12.73 11.59-12.73 4.8 0 6.68 2.09 7.41 2.82h.21l.1-2.19H220zm-40.08 0h8.56v24.42h-8.56V22.86zm45.51 24.42V12.84h8.45v11.79h.1a13.14 13.14 0 0 1 7.41-2.3c6.58 0 11.48 5.32 11.48 12.32 0 8.77-5.43 13.15-11.48 13.15-4.59 0-7-2.19-7.51-2.82h-.1l-.1 2.19h-8.25zm-83.08-5.64c3.44 0 5.43-3 5.43-6.58s-2-6.68-5.43-6.68c-3.65 0-5.43 3-5.43 6.68s2 6.58 5.43 6.58zm33.5-1a11.37 11.37 0 0 1-2.3.42 3.4 3.4 0 0 1-3.65-3.76V29h5.32v-6.14h-5.32V15h-8.45v7.83h-3.76V29h3.76v9.6c0 5.32 2.5 9.08 8.77 9.08a27.93 27.93 0 0 0 4.7-.42l.94-6.68zm-96.54 5.7a35.2 35.2 0 0 0 9.81 1.36c7.2 0 14.51-2.61 14.51-10.54 0-11-15-9.39-15-13.78 0-2.19 2.3-2.71 4.59-2.71a24.4 24.4 0 0 1 8 1.88L102 15a30 30 0 0 0-8.66-1.15c-7.2 0-14.19 2.82-14.19 9.92 0 10.75 15 8.45 15 14.09 0 2.19-2.19 3-4.91 3-3.76 0-7.31-1.88-8.87-2.61l-1 8zM264.9 34.86c0 4.07 2.3 6.58 5.22 6.58 2.61 0 5.22-2.5 5.22-6.26s-2.3-6.37-5.22-6.37c-3.13 0-5.22 2.71-5.22 6.05zm-63.67 0c0 4.07 2.3 6.58 5.22 6.58 2.61 0 5.22-2.5 5.22-6.26s-2.3-6.37-5.22-6.37-5.22 2.71-5.22 6.05zM126 23.27a19.43 19.43 0 0 0-6.05-.94c-7.62 0-13.36 4.8-13.36 12.73 0 7.2 5.11 12.73 13 12.73a22.39 22.39 0 0 0 6.37-1l-.42-7.1a9.46 9.46 0 0 1-4.28 1.25 5.67 5.67 0 0 1-5.95-5.84 5.76 5.76 0 0 1 6.05-5.84 9.61 9.61 0 0 1 4.17 1.15l.42-7.1zm193.82 24h8.45V36h.1l7.51 11.27h9.39l-9.08-12.94 8.87-11.48h-9.39l-7.31 10h-.1v-20h-8.46v34.43zm-30.69 0h8.25V34.65c0-2.92 2-5 4.49-5 2.82 0 4.49 1.88 4.49 5v12.63h8.25V32.56c0-5.53-3.55-10.23-10.12-10.23a10.11 10.11 0 0 0-7.62 3.34h-.21l-.1-2.71h-7.41v24.32zM184.22 10.54a4.8 4.8 0 1 0 4.8 4.8 4.86 4.86 0 0 0-4.8-4.8zm59.91 24.53c0-3.24-1.88-6.16-5.11-6.16-2.82 0-5.11 2.4-5.11 6.16s1.88 6.16 5.11 6.16c2.92 0 5.11-2.4 5.11-6.16zM360.5 16.7a5.91 5.91 0 0 1-.31 1.88 5.29 5.29 0 0 1-.94 1.67 4 4 0 0 1-1.67 1.15 5 5 0 0 1-2.3.42 5.31 5.31 0 0 1-2.3-.42 9.46 9.46 0 0 1-1.67-1.15 5.29 5.29 0 0 1-.94-1.67 5.79 5.79 0 0 1 0-3.76 5.29 5.29 0 0 1 .94-1.67A4 4 0 0 1 353 12a6.52 6.52 0 0 1 4.59 0 9.46 9.46 0 0 1 1.67 1.15 5.29 5.29 0 0 1 .94 1.67 5.91 5.91 0 0 1 .3 1.88zm-.94 0a4.19 4.19 0 0 0-.31-1.57 3.68 3.68 0 0 0-.83-1.36 3.18 3.18 0 0 0-1.36-.94 5 5 0 0 0-1.88-.42 3.57 3.57 0 0 0-1.88.42 4 4 0 0 0-1.36.94 5.92 5.92 0 0 0-.83 1.36 4.07 4.07 0 0 0 0 3.13 3.68 3.68 0 0 0 .83 1.36 3.18 3.18 0 0 0 1.36.94 5 5 0 0 0 1.88.42 3.57 3.57 0 0 0 1.88-.42 6.28 6.28 0 0 0 1.36-.94 5.92 5.92 0 0 0 .83-1.36 4.19 4.19 0 0 0 .31-1.56zm-6.05-2.7a.38.38 0 0 1 .1-.31.54.54 0 0 1 .42-.21h1.36a3 3 0 0 1 .94.21 1.92 1.92 0 0 1 1 1 1.32 1.32 0 0 1 .1.63 2.33 2.33 0 0 1-.31 1 2.27 2.27 0 0 1-.94.73c.21.31.42.52.63.83a4.54 4.54 0 0 0 .63.73c.1.1.21.21.21.31v.21a.54.54 0 0 1-.21.42.38.38 0 0 1-.31.1c-.21 0-.31-.1-.52-.31a5.79 5.79 0 0 1-.63-.83c-.31-.42-.52-.73-.83-1.15l-.1-.1h-.52v2a.63.63 0 0 1-.1.42c-.1.1-.21.1-.42.1a.63.63 0 0 1-.42-.1c-.1-.1-.1-.21-.1-.42zm1 2.3h.83a1 1 0 0 0 .73-.31.88.88 0 0 0 .21-.73 1.48 1.48 0 0 0-.21-.63 1 1 0 0 0-.73-.31h-.83z"/></svg>
